X:612
T:Polska efter J. M. Dahl (156)
T:(Sv. L. Sm. 156)
S:efter Johan Magnus Dahl
R:Polska
Z:Patrik Månsson, 5/10 2008
B:Svenska Låtar Småland
B:http://www.smus.se/earkiv/fmk/browselarge.php?lang=sw&katalogid=Sm+4&bildnr=00092
B:Jämför [[http://www.smus.se/earkiv/fmk/browselarge.php?lang=sw&katalogid=M+177&bildnr=00100|SMUS - katalog M177 bild 100]] (nr 21) ur [[Notböcker/E L Lindblads Notbok]] som anges komma från [[Platser/Blekinge]]
B:Jämför [[http://www.smus.se/earkiv/fmk/browselarge.php?lang=sw&katalogid=Hs+6&bildnr=00004|SMUS - katalog Hs6 bild 4]] från Hälsingland.
B:Jämför [[http://www.smus.se/earkiv/fmk/browselarge.php?lang=sw&katalogid=M+36&bildnr=00013|SMUS - katalog M36 bild 13]] (nr 44) som uppges komma från [[Platser/Bleking]], hämtad ur [[Notböcker/220 Svenska Folkdanser]].
B:Jämför [[http://www.smus.se/earkiv/fmk/browselarge.php?lang=sw&katalogid=M+93&bildnr=00023|SMUS - katalog M93 bild 23]] nr 47 efter [[Personer/Andreas Grevelius]]
N:Sv. L. Sm. 156.
N:Melodin är en variant av 'Klang min vackra bjällra'.
O:Skatelöv, Småland
M:3/4
L:1/16
K:Am
|: "Am" e2eB c2cA "E"B2B^G | E2E^G "Am" A2AB (cB)cd | e2eB c2cA "E" B2B^G | (E^G)BG "Am" B2A2 A2 z2 :|
|: "Am" ABcd e2e2 c4 | c2e2 "Dm" f2ef d4 | "G" dBGB dBGB dBGB | "Am" cBcd e2e2 e2e2 |
e2eB c2cA "E" B2B^G | E2E^G "Am" A2AB cBcd | e2eB c2cA "E" B2B^G | E^GBG "Am" B2A2 A2 z2 :|
(:musicend:)

I allspelsnoterna från Markarydsstämman 4 okt 2008 finns det en notrad till jämfört med uppteckningen på SMUS. Jag vet inte vilket som är rätt för jag har inte sett låten tidigare. /Patrik
(:music:)
